X: 17026
T: Heartbreak Hill
R: jig
M: 6/8
K: Bminor
|:FBd def|edB ~B2A|GBd def|afe dBA|
EGB def|edB ~B2d|ede f2d|1 ~B3 BAG:|2 ~B3 BAF||
|:~B3 BAb-|b2a- a2B|BAF a2f-|f2a agf|
~e3 edB|~e3 edB|1 DEG ABd|~e3 d2c:|2 DEG edA|~B3 BAG||

